X:1
T:Le Ray Au Soleyl
T:Le Ray Au Soleyl
T:Canon
T:Johannes Ciconia (~1370−1375)
T:I-PEc MS 3065
%%score 1 2 3 4
L:1/8
M:3/2
K:C
V:1 treble nm="Stimme"
V:2 treble-8 nm="Bassblockflöte"
V:3 treble-8 nm="Tenorblockflöte"
V:4 treble-8 nm="Bassblockflöte"
V:1
"^A" A4 F4 D4 | F8 D4 | F4 A8 | F8 D4 | D4 C8 | D4 F4 C4- | C4 G4 F4 | D8 E4 | D8 C4 | C4 F8 | %10
w: Le _ _|ray au|so- leyl|_ qui|dret som|kar mey ne|_ _ _||En soy-|* bra-|
 G8 z4 | F8 D4 | C12 ||"^B" z12 | z12 | z12 | z12 | z12 | z12 | z12 | z12 | z12 | z12 | z12 | z12 | %25
w: cant|la dou-|ce.|||||||||||||
 z12 ||"^C" z12 | z12 | z12 | z12 | z12 | z12 | z12 | z12 | z12 | z12 | z12 | z12 | z12 |] %39
w: ||||||||||||||
V:2
 z12 | z12 | z12 | z12 | z12 | z12 | z12 | z12 | z12 | z12 | z12 | z12 | z12 || %13
w: |||||||||||||
[K:treble-8] afd f2 d f a2 f2 d | d c2 d f c2 g f d2 e | d3 c f2 g2 z f2 d | c _B2 A G2 G2 dd f2 | %17
w: Le _ _ ray au so- leyl _ qui|dret som kar- mey- ne _ _ _ _|En soy bra- çant la dou-|ce tor- to- rel- le _ _ _|
 g f2 d e2- ef g e2 d | f d2 B GA B c d c2 B | dAA c B2 d2 f z cd- | d f2 a d f2 g f2 g z | %21
w: _ _ _ _ _ _ _ _ _||La quel com- pan- gnon on- ques re- no-|* vel- le, A bon _ droyt _|
 a2 a a a2 a2 A _B A2 | c2 d d c2 c2 d f2 d | _B3 B- B2 _B2 A c2 d | d f2 dcd efg ^f2 e | g12 || %26
w: sem- bla que toy per- fect re- gne.|_ _ _ _ _ _ _ _||||
 afd f2 d f a2 f2 d | d c2 d f c2 g f d2 e | d3 c f2 g2 z f2 d | c _B2 A G2 G2 dd f2 | %30
w: ||||
 g f2 d e2- ef g e2 d | f d2 B GA B c d c2 B | dAA c B2 d2 f z cd- | d f2 a d f2 g f2 g z | %34
w: ||||
 a2 a a a2 a2 A _B A2 | c2 d d c2 c2 d f2 d | _B3 B- B2 _B2 A c2 d | d f2 dcd efg ^f2 e | g12 |] %39
w: |||||
V:3
 z12 | z12 | z12 | z12 | z12 | z12 | z12 | z12 | z12 | z12 | z12 | z12 | z12 || %13
[K:treble] A4 F4 D4 | F8 D4 | F4 A8 | F8 D4 | D4 C8 | D4 F4 C4- | C4 G4 F4 | D8 E4 | D8 C4 | %22
 C4 F8 | G8 z4 | F8 D4 | C12 || A4 F4 D4 | F8 D4 | F4 A8 | F8 D4 | D4 C8 | D4 F4 C4- | C4 G4 F4 | %33
 D8 E4 | D8 C4 | C4 F8 | G8 z4 | F8 D4 | C12 |] %39
V:4
 (3a2 f2 d2 (3:2:2f4 d2 (3:2:2f2 a4 | (3:2:2f4 d2 (3:2:2d2 c4 (3d2 f2 c2- | %2
w: Le _ _ ray au so- leyl|_ qui dret som kar- mey- ne|
 (3c2 g2 f2 (3:2:2d4 e2 d4 | (3:2:2c2 f4 g2 z2 (3:2:2f4 d2 | (3:2:2c2 _B4 (3:2:2A2 G4 (3:2:2G4 d2 | %5
w: _ _ _ _ _ En|soy bra- çant la dou-|ce tor- to- rel- le, _|
 (3:2:2d2 f4 (3:2:2g2 f4 (3:2:2d2 e4- | (3e2 f2 g2 (3:2:2e4 d2 (3:2:2f2 d4 | %7
w: _ _ _ _ _ _||
 (3B2 G2 A2 (3B2 c2 d2 (3:2:2c4 B2 | (3d2 A2 A2 (3:2:2c2 B4 (3:2:2d4 f2 | %9
w: |La- quel com- pan- gnon on- ques|
 (3z2 c2 d2- (3:2:2d2 f4 (3a2 d2 f2- | (3f2 g2 f2- (3f2 g2 z2 (3:2:2a4 a2 | %11
w: re- no- * vel- le, A bon|_ _ droyt _ _ sem- bla|
 (3:2:2a2 a4 (3:2:2a4 A2 (3:2:2_B2 A4 | c12 || z12 | z12 | z12 | z12 | z12 | z12 | z12 | z12 | %21
w: que en toy per- fect re-|gne.|||||||||
 z12 | z12 | z12 | z12 | z12 || (3a2 f2 d2 (3:2:2f4 d2 (3:2:2f2 a4 | %27
w: ||||||
 (3:2:2f4 d2 (3:2:2d2 c4 (3d2 f2 c2- | (3c2 g2 f2 (3:2:2d4 e2 d4 | (3:2:2c2 f4 g2 z2 (3:2:2f4 d2 | %30
w: |||
 (3:2:2c2 _B4 (3:2:2A2 G4 (3:2:2G4 d2 | (3:2:2d2 f4 (3:2:2g2 f4 (3:2:2d2 e4- | %32
w: ||
 (3e2 f2 g2 (3:2:2e4 d2 (3:2:2f2 d4 | (3B2 G2 A2 (3B2 c2 d2 (3:2:2c4 B2 | %34
w: ||
 (3d2 A2 A2 (3:2:2c2 B4 (3:2:2d4 f2 | (3z2 c2 d2- (3:2:2d2 f4 (3a2 d2 f2- | %36
w: ||
 (3f2 g2 f2- (3f2 g2 z2 (3:2:2a4 a2 | (3:2:2a2 a4 (3:2:2a4 A2 (3:2:2_B2 A4 | c12 |] %39
w: |||

